X: 53
T:Proudlocks's Hornpipe
% Nottingham Music Database
S:NPTB
M:4/4
L:1/8
R:Hornpipe
K:G
P:A
D2|"G"GDGB "D7"AGAB|"G"G2gf "C"gedc|"G"(3BcdBG "D7"(3ABcAF|"G"GFGA "D7"GFED|
"G"GDGB "D7"AGAB|"G"G2gf "C"gedc|"G"(3BcdBG "D7"(3ABcAF|"G"G2G2 G2:|
P:B
Bc|"G"dedc "Em"B2(3GAB|"Am"cdcB "D7"A2Bc|"G"dedc "Em"B2g2|"A7"agfe "D7"dcBA|
"G"GDGB "D7"AGAB|"G"G2gf "C"gedc|"G"(3BcdBG "D7"(3ABcAF|"G"G2G2 G2:|<end>
<start>
